X:38
T:Rondeau
R:Rondeau
C:anonyme
H:
N:5, p 3
B:
O:France
A:
Z:<anamnese@laposte.net> -- http://anamnese.fr.st
M:6/8
L:1/4
Q:1/4=120
K:C
!segno!cc/ | ee/gg/ | !!ed/fe/ | d/>e/c/ !!BA/ | G3/ cc/ |
ee/gg/ | ed/ e/>f/g/ | g/>f/e/ !!dc/ | c3/ !fine! :|| ee/ | gg/aa/ |
g3/aa/ | ga/gf/ | !!ed/ee/ | e/>f/e/dc/ | g3/ !D.S.! |]
